!!!SOCIAL_FUNCTION:	songs of dances presented at makah day celebrations
!!!PDT:	1939
!!!OTL: No_61_Klikitat_Dance_Song.krn
!!!LANG: Non-Tone
!!!LING_GROUP: Wakashan
!!!REG: Pacific Northwest
**kern	**kern
*staff2	*staff1
=1-	=1-
*clefF4	*clefF4
*k[]	*k[]
*M3/4	*M3/4
8GG^/L	4d\
8GG/J	.
8GG^/L	8d\L
8GG/J	8e\J
8GG^/L	8d\L
8GG/J	8e\J
=2||	=2||
*M2/4	*M2/4
8GG^/L	8d\L
8GG/J	8A\J
8GG^/L	16A\
.	16r
8GG/J	8d\
=3	=3
8GG^/L	8e\L
8GG/J	8d\J
8GG^/L	8B\L
8GG/J	8B\J
=4	=4
8GG^/L	8B\L
8GG/J	8A\J
8GG^/L	8A\L
8GG/J	8E\J
=5||	=5||
*M3/4	*M3/4
8GG^/L	2.A\
8GG/J	.
8GG^/L	.
8GG/J	.
8GG^/L	.
8GG/J	.
=6	=6
8GG^/L	8A\L
8GG/J	8A\J
8GG^/L	8A\
8GG/J	8r
8GG^/L	8B\L
8GG/J	8d\J
=7	=7
8GG^/L	[2d\
8GG/J	.
8GG^/L	.
8GG/J	.
8GG^/L	8d\L]
8GG/J	8A\J
=8||	=8||
*M2/4	*M2/4
8GG^/L	8A\L
8GG/J	16E\Jk
.	16r
8GG^/L	4A\
8GG/J	.
=9	=9
8GG^/L	8A\L
8GG/J	8G\J
8GG^/L	8G\L
8GG/J	8E\J
=10||	=10||
*M3/4	*M3/4
8GG^/L	8E\L
8GG/J	8E\J
8GG^/L	8E\L
8GG/J	8E\J
8GG^/L	8D\
8GG/J	8r
=11	=11
8GG^/L	4E\
8GG/J	.
8GG^/L	8E\L
8GG/J	8E\J
8GG^/L	8E\L
8GG/J	8D\J
=12	=12
8GG^/L	2D\
8GG/J	.
8GG^/L	.
8GG/J	.
8GG^/L	4r
8GG/J	.
==	==
*-	*-
